src/assets/selectIcons/mappa.svg

<svg xmlns="http://www.w3.org/2000/svg" viewBox="0 0 512 512"><path d="M0 0h512v512H0z"/><path fill="#fff" d="M227.4 34.7c-10.1 0-20.2.2-30.2.5l6.1 65.6-61.1-62.5c-31.3 2.5-62.5 6.6-93.8 12.5l34.2 28.4-48-.6c35.1 100.2 6.9 182.6-.3 292.1L130 476.5c10-1.3 19.9-2.4 29.6-3.3l21.5-42.2 18.6 28.8 41.5-33.5.8 43c82.9-.2 157.7 9.1 235.7 7.9-28.2-73-31.2-143.6-31.9-209.2l-33.3-19.1 32.7-33.9c-.4-21.3-1.3-42-3.6-61.9l-57.4.7 50.2-41.7c-3.8-15.5-9-30.4-16.1-44.7l-29.5-23.9C335 38 281.2 34.6 227.4 34.7zm58.7 37c10.6 24.75 21.1 49.5 31.7 74.3 7.5-10.5 14.9-21 22.4-31.5 16 27.2 32 54.3 48 81.5l-16.2 9.5-33.3-56.7-42.5 59.4-15.2-10.9 24-33.5-21.9-51.5-24.6 40.1 12 22.6-16.5 8.8-18.3-34.5-24.8 58.2-17.2-7.4 32.5-76.2 7.7-18c4.8 9.2 9.6 18.3 14.5 27.4 12.5-20.6 25.1-41.11 37.7-61.6zM91.2 128c6.72 1.6 13.4 3.4 19.2 5.3-2.1 5.9-4.1 11.8-6.2 17.6-5.79-1.6-11.72-3.4-16.9-4.7 1.39-6 2.62-12.1 3.9-18.2zm37.9 13.4c6.3 3.8 12 7.2 17 12.8L132.6 167c-4-3.7-8.6-7-12.8-9.4zm28.7 32.3c2.1 7.4 2.1 15.7 1.6 22.5l-18.5-2.4c.1-5.1.3-10-1-14.5zm-21.2 35.7l17.2 7.1c-3.3 6.6-5.1 12.7-8.6 17.8l-16.3-9c2.6-5.4 5.6-10.8 7.7-15.9zm-16.5 34.1l17.7 6.1c-1.5 5.4-3 11.2-3.6 16.2l-18.6-2c1.3-7.5 2.1-14 4.5-20.3zm207.8 17.4c8.5 1 14.6 3 21.7 7.1l-9.8 16c-4.1-2.8-9.4-3.8-13.5-4.5zm-21.2 1.5c1.1 6.1 2.5 12.2 3.9 18.3-5.9 1.3-11.7 3.3-16.5 5.1l-6.8-17.4c6.7-2.4 13.5-4.7 19.4-6zm-37.9 15.9l11 15.1c-5.6 4-11.8 7.8-16.8 10.6l-8.9-16.4c5.1-2.9 10.6-6.3 14.7-9.3zM135.3 281c1.5 4.7 4.2 9.2 6.9 12.1l-13.8 12.6c-5.5-5.7-9.5-13.5-11.2-20.1zm230.3 3.3c3.5 6.4 6.8 12.7 8.7 19.1l-17.8 5.6c-2-5.4-4.3-10.8-6.8-14.8zm-127.4 10.9l6.9 17.3c-6.4 2.7-12.9 4.8-18.6 6.5l-5-18c5.9-1.6 11.3-3.8 16.7-5.8zm-83.8 6.2c5.3 1.7 10.8 3.4 15.7 4.2-1.2 6.1-2 12.3-2.8 18.5-7-1-14.5-3.3-20.5-5.7zm50 3.5l2.8 18.5c-7.2 1.3-13.4 1.6-19.8 1.9l-.4-18.7c5.9-.2 11.6-.8 17.4-1.7zm174.5 18c1 6.4 1.6 12.9 2.2 19.3l-18.7 1.5c-.4-6-.9-11.9-2-17.8zm-67.6 30.8c18.9 3.5 44.9 16.2 68.9 33.9 7.4-9.9 14.4-20.4 21.3-31.1l30.1 12.9c-4.7 12.3-15 25.6-28.6 37.2 17 16.2 30.9 34.5 37 53-13.8-18.1-31.1-31.8-50.3-42.8-23.4 15.8-52.7 25.9-79.6 20.4 22.9-4.4 40.6-16.6 55.8-32.6-16.5-7.5-33.8-13.9-51.3-20.1z"/></svg>

<?xml version="1.0" encoding="UTF-8" standalone="no"?>
<!DOCTYPE svg PUBLIC "-//W3C//DTD SVG 1.1//EN" "http://www.w3.org/Graphics/SVG/1.1/DTD/svg11.dtd">
<svg width="100%" height="100%" viewBox="0 0 512 512" version="1.1" xmlns="http://www.w3.org/2000/svg" xmlns:xlink="http://www.w3.org/1999/xlink" xml:space="preserve" xmlns:serif="http://www.serif.com/" style="fill-rule:evenodd;clip-rule:evenodd;stroke-linejoin:round;stroke-miterlimit:2;">
    <rect x="0" y="0" width="512" height="512" style="fill-rule:nonzero;"/>
    <path d="M227.4,34.7C217.3,34.7 207.2,34.9 197.2,35.2L203.3,100.8L142.2,38.3C110.9,40.8 79.7,44.9 48.4,50.8L82.6,79.2L34.6,78.6C69.7,178.8 41.5,261.2 34.3,370.7L130,476.5C140,475.2 149.9,474.1 159.6,473.2L181.1,431L199.7,459.8L241.2,426.3L242,469.3C324.9,469.1 399.7,478.4 477.7,477.2C449.5,404.2 446.5,333.6 445.8,268L412.5,248.9L445.2,215C444.8,193.7 443.9,173 441.6,153.1L384.2,153.8L434.4,112.1C430.6,96.6 425.4,81.7 418.3,67.4L388.8,43.5C335,38 281.2,34.6 227.4,34.7ZM286.1,71.7C296.7,96.45 307.2,121.2 317.8,146C325.3,135.5 332.7,125 340.2,114.5C356.2,141.7 372.2,168.8 388.2,196L372,205.5L338.7,148.8L296.2,208.2L281,197.3L305,163.8L283.1,112.3L258.5,152.4L270.5,175L254,183.8L235.7,149.3L210.9,207.5L193.7,200.1L226.2,123.9L233.9,105.9C238.7,115.1 243.5,124.2 248.4,133.3C260.9,112.7 273.5,92.19 286.1,71.7ZM91.2,128C97.92,129.6 104.6,131.4 110.4,133.3C108.3,139.2 106.3,145.1 104.2,150.9C98.41,149.3 92.48,147.5 87.3,146.2C88.69,140.2 89.92,134.1 91.2,128ZM129.1,141.4C135.4,145.2 141.1,148.6 146.1,154.2L132.6,167C128.6,163.3 124,160 119.8,157.6L129.1,141.4ZM157.8,173.7C159.9,181.1 159.9,189.4 159.4,196.2L140.9,193.8C141,188.7 141.2,183.8 139.9,179.3L157.8,173.7ZM136.6,209.4L153.8,216.5C150.5,223.1 148.7,229.2 145.2,234.3L128.9,225.3C131.5,219.9 134.5,214.5 136.6,209.4ZM120.1,243.5L137.8,249.6C136.3,255 134.8,260.8 134.2,265.8L115.6,263.8C116.9,256.3 117.7,249.8 120.1,243.5ZM327.9,260.9C336.4,261.9 342.5,263.9 349.6,268L339.8,284C335.7,281.2 330.4,280.2 326.3,279.5L327.9,260.9ZM306.7,262.4C307.8,268.5 309.2,274.6 310.6,280.7C304.7,282 298.9,284 294.1,285.8L287.3,268.4C294,266 300.8,263.7 306.7,262.4ZM268.8,278.3L279.8,293.4C274.2,297.4 268,301.2 263,304L254.1,287.6C259.2,284.7 264.7,281.3 268.8,278.3ZM135.3,281C136.8,285.7 139.5,290.2 142.2,293.1L128.4,305.7C122.9,300 118.9,292.2 117.2,285.6L135.3,281ZM365.6,284.3C369.1,290.7 372.4,297 374.3,303.4L356.5,309C354.5,303.6 352.2,298.2 349.7,294.2L365.6,284.3ZM238.2,295.2L245.1,312.5C238.7,315.2 232.2,317.3 226.5,319L221.5,301C227.4,299.4 232.8,297.2 238.2,295.2ZM154.4,301.4C159.7,303.1 165.2,304.8 170.1,305.6C168.9,311.7 168.1,317.9 167.3,324.1C160.3,323.1 152.8,320.8 146.8,318.4L154.4,301.4ZM204.4,304.9L207.2,323.4C200,324.7 193.8,325 187.4,325.3L187,306.6C192.9,306.4 198.6,305.8 204.4,304.9ZM378.9,322.9C379.9,329.3 380.5,335.8 381.1,342.2L362.4,343.7C362,337.7 361.5,331.8 360.4,325.9L378.9,322.9ZM311.3,353.7C330.2,357.2 356.2,369.9 380.2,387.6C387.6,377.7 394.6,367.2 401.5,356.5L431.6,369.4C426.9,381.7 416.6,395 403,406.6C420,422.8 433.9,441.1 440,459.6C426.2,441.5 408.9,427.8 389.7,416.8C366.3,432.6 337,442.7 310.1,437.2C333,432.8 350.7,420.6 365.9,404.6C349.4,397.1 332.1,390.7 314.6,384.5L311.3,353.7Z" style="fill:rgb(230,207,146);fill-rule:nonzero;"/>
</svg>
